packages/cfpb-design-system/src/components/cfpb-icons/icons/childcare-round.svg

<svg viewBox="0 0 17 19" xmlns="http://www.w3.org/2000/svg"><path d="m16.417 9.579a7.917 7.917 0 1 1 -7.917-7.917 7.917 7.917 0 0 1 7.917 7.917m-5.552-1.99a.476.476 0 0 0 -.475-.474h-3.816a.476.476 0 0 0 -.475.475v1.264h1.371a.396.396 0 0 1 0 .792h-1.37v1.213h1.37a.396.396 0 0 1 0 .792h-1.37v1.213h1.37a.396.396 0 0 1 0 .792h-1.37v1.03a.476.476 0 0 0 .474.475h3.816a.476.476 0 0 0 .475-.475zm-4.224-1.167h3.683a1.84 1.84 0 0 0 -1.446-1.799v-.443a.396.396 0 0 0 -.792 0v.442a1.84 1.84 0 0 0 -1.445 1.8"/></svg>

<svg xmlns="http://www.w3.org/2000/svg" class="cf-icon-svg cf-icon-svg--childcare-round" viewBox="0 0 17 19"><path d="M16.417 9.579A7.917 7.917 0 1 1 8.5 1.662a7.917 7.917 0 0 1 7.917 7.917m-5.552-1.99a.476.476 0 0 0-.475-.474H6.574a.476.476 0 0 0-.475.475v1.264H7.47a.396.396 0 0 1 0 .792H6.1v1.213h1.37a.396.396 0 0 1 0 .792H6.1v1.213h1.37a.396.396 0 0 1 0 .792H6.1v1.03a.476.476 0 0 0 .474.475h3.816a.476.476 0 0 0 .475-.475zM6.641 6.422h3.683a1.84 1.84 0 0 0-1.446-1.799V4.18a.396.396 0 0 0-.792 0v.442a1.84 1.84 0 0 0-1.445 1.8"/></svg>
